X:73
M:C|
L:1/8
Q:1/2=80
K:A
(A3/B//c//) BA GF E2|A2 Bc F2 (d3/e//f//)|ecdB A2A,2::\
e2 a>f e3 e|eddc c2 B2|ecec dBdB|
ecac c2B2|A2 ec aecA|E2 Bd cAEC|F2 GA EA df|ec e/d/c/B/ A2A,2:|

